X:1
T: Burgerbeitz Tanze
K:C
M: 6/8
L: 1/8
EFG|:"C" C2 C EFG|"G" D2 D DEF|GAG FED|"C" E2 C EFG|
C2 C EFG|"G" D2 D DEF|GAG FED|"C" C3 EFG :|
|:"F" A3 AFA|"C" G2 G GFE|"G" D2 D DCD|"C" E2 C EFG|
"F" A3 AFA|"C" G2 G GFE|"G" DG,A, B,CD|"C" C3 EFG :|
|:"F" A3 "C" G3|"G" D3 DEF| GAG FED|"C" E2 C EFG|
"F" A3 "C" G3|"G" D3 DEF| GAG FED|"C" C3 EFG :|
